X:1
T:Jouard, 10.10.12.10
T:Calvin & Farel Jouard, 1903
T:Jouard, 10.10.12.10
T:Public Domain
C:Calvin & Farel Jouard, 1903
Z:Public Domain
%%score ( 1 2 ) ( 3 4 )
L:1/8
M:4/4
K:F
V:1 treble 
V:2 treble 
V:3 bass 
V:4 bass 
V:1
 [FA]4 [F^G]2 [FA]2 | [Fc]3 [FB] [FA]4 | [EG]4 [^D^F]2 [EG]2 | (A4 F4) | [FA]4 [F^G]2 [FA]2 | %5
 [Fc]3 [FB] [FA]4 | [EG]4 C2 [EG]2 | F8 | [DB]4 [GB]2 [GB]2 | [FA]3 [F^G] [FA]4 | %10
 [Fc]4 [Fd]2 [Fc]2 | [FA]3 [FA] [EG]4 | [FA]4 [F^G]2 [FA]2 | [Fc]3 [FB] [FA]4 | [EG]4 C2 [EG]2 | %15
 [CF]8 |] %16
V:2
 x8 | x8 | x8 | F8 | x8 | x8 | x4 C2 x2 | F8 | x8 | x8 | x8 | x8 | x8 | x8 | x4 C2 x2 | x8 |] %16
V:3
 [F,C]4 [F,=B,]2 [F,C]2 | [F,D]3 [F,D] [F,C]4 | [C,C]4 [C,C]2 [C,C]2 | (C4 A,4) | %4
 [F,C]4 [F,=B,]2 [F,C]2 | [F,D]3 [F,_D] [F,C]4 | [C,C]4 [E,B,]2 [C,B,]2 | [F,A,]8 | %8
 G,4 [F,D]2 [E,C]2 | [F,C]3 [F,=B,] [F,C]4 | [F,A,]4 [F,B,]2 [F,A,]2 | [F,C]3 [A,,C] [C,C]4 | %12
 [F,C]4 [F,=B,]2 [F,C]2 | [F,D]3 [F,_D] [F,C]4 | [C,C]4 [E,B,]2 [C,B,]2 | [F,A,]8 |] %16
V:4
 x8 | x8 | x8 | F,8 | x8 | x8 | x8 | x8 | G,4 x4 | x8 | x8 | x8 | x8 | x8 | x8 | x8 |] %16

